svg/fluentui-system-icons/ic_fluent_text_align_left_rotate_90_16_regular.svg

<svg width="16" height="16" viewBox="0 0 16 16" fill="none" xmlns="http://www.w3.org/2000/svg">
<path d="M12.5 1C12.7761 1 13 1.22386 13 1.5V10.5C13 10.7761 12.7761 11 12.5 11C12.2239 11 12 10.7761 12 10.5V1.5C12 1.22386 12.2239 1 12.5 1ZM8.5 1C8.77614 1 9 1.22386 9 1.5V14.5C9 14.7761 8.77614 15 8.5 15C8.22386 15 8 14.7761 8 14.5V1.5C8 1.22386 8.22386 1 8.5 1ZM4.5 1C4.77614 1 5 1.22386 5 1.5V6.5C5 6.77614 4.77614 7 4.5 7C4.22386 7 4 6.77614 4 6.5V1.5C4 1.22386 4.22386 1 4.5 1Z" fill="#212121"/>
</svg>

<svg xmlns="http://www.w3.org/2000/svg" width="16" height="16"><path d="M12.5 1a.5.5 0 0 1 .5.5v9a.5.5 0 0 1-1 0v-9a.5.5 0 0 1 .5-.5Zm-4 0a.5.5 0 0 1 .5.5v13a.5.5 0 0 1-1 0v-13a.5.5 0 0 1 .5-.5Zm-4 0a.5.5 0 0 1 .5.5v5a.5.5 0 0 1-1 0v-5a.5.5 0 0 1 .5-.5Z"/></svg>
